X:128
T:Soldiers Return, The
S:John Moore's Book 2
Z:Transcribed by Edmund Spriggs 05/2021
%%VWML: Moore1-4494-p98-0
F:http://www.vwml.org/record/Moore2/4494/p98
M:2/4
N:Six bars in the first strain and seven bars in the second strain.
L:1/8
K:C
c|ec fa|ag gB|c3g|g^f ga|
bc' a^f|g3:|
|:g|c'2ge|a2de|fa gB|c2Bc|
ec fa|ag gB|c3:|



%abc
%%abc-alias none
%%abc-creator ABCexplorer 1.6.1 [04/05/2021]

